X: 393
T:La Spagna
N: Derived from Jos2912-La_Spagna.krn
C: Josquin des Prez
%%abc-version 2.0
%%abcx-abcm2ps-target-version 5.9.1 (29 Sep 2008)
%%abc-creator hum2abc beta
%%abcx-conversion-date 2019/02/12 16:15:55
%%abc-edited-by Jesse Rodin
%%abc-edited-by Chris Gage 07-01-2014
%%abcx-initial-encoding-date 2014/08/09/
%%humdrum-veritas 4220229896
%%humdrum-veritas-data 1724801470
%%linebreak <none>
%%barnumbers 0
L: 1/4
M: 3/1
Q: 1/2=120
V: 1 clef=treble
V: 2 clef=treble-8
V: 3 clef=treble-8
V: 4 clef=bass
V: 5 clef=bass
K: C
[V:1] z12 | 
[V:2] z12 | 
[V:3] A8A4 | 
[V:4] E,4E,2F,4E,D, | 
[V:5] A,,3B,,C,2D,4C,B,, | 
[V:1] z12 | 
[V:2] z4A6d2- | 
[V:3] A8F2G2 | 
[V:4] E,2D,4C,2D,2B,,2 | 
[V:5] C,2D,2A,,4z2D,2 | 
[V:1] z2E2F3GA2D2 | 
[V:2] d2c2d4z2d2 | 
[V:3] A8A4 | 
[V:4] A,,4z2D,6 | 
[V:5] E,4D,2F,6 | 
[V:1] E2F4D2E2F2 | 
[V:2] c2d6c2d2 | 
[V:3] A8A4 | 
[V:4] A,,2F,6E,2D,2 | 
[V:5] E,2D,6A,,2D,2 | 
[V:1] G2A3GF3EED | 
[V:2] B2c4B2c4- | 
[V:3] E6F2G4 | 
[V:4] E,2A,,2C,2D,2C,4 | 
[V:5] z4z4z2C,2- | 
[V:1] F2E3A,D4^C2 | 
[V:2] c2c3BAGA4- | 
[V:3] A4G2F2E4 | 
[V:4] F,,G,,A,,B,,C,2D,2A,,4 | 
[V:5] C,B,,C,D,E,2D,2C,2A,,2 | 
[V:1] D3EF2D4CB, | 
[V:2] A4A4z4 | 
[V:3] D8D4 | 
[V:4] z4D,3E,F,2G,2- | 
[V:5] z2D,3E,F,2D,2G,,2 | 
[V:1] A,2D4C2D4 | 
[V:2] z2A2_B3A/G/F2_B2 | 
[V:3] D8D2E2 | 
[V:4] G,2F,2G,3F,/E,/D,2_B,,2 | 
[V:5] D,4G,,2_B,,4A,,G,, | 
[V:1] z2D2D4z2D2 | 
[V:2] A2_B3AF2z2_B2 | 
[V:3] F8F4 | 
[V:4] C,2D,6C,2D,2 | 
[V:5] F,,2_B,,4A,,2B,,4 | 
[V:1] F3GA2F2A4 | 
[V:2] A2F3GABc4 | 
[V:3] F8F4 | 
[V:4] C,4F,,3G,,A,,B,,C,2- | 
[V:5] F,,4z2F,,3G,,A,,B,, | 
[V:1] G3FE2A4^G2 | 
[V:2] c2c6B4 | 
[V:3] E8E4 | 
[V:4] C,B,,E,2A,,2A,,2z4 | 
[V:5] C,3D,E,2A,,2E,4 | 
[V:1] A2G2F2D4^C2 | 
[V:2] A2c3BAGA4 | 
[V:3] A6GFE4 | 
[V:4] z2A,,2C,2D,2A,,4 | 
[V:5] A,,4z4z4 | 
[V:1] D12 | 
[V:2] A4z2d3cB2 | 
[V:3] D8D4 | 
[V:4] F,2D,2F,3E,D,2G,,2 | 
[V:5] z2F,2D,2F,3D,G,2- | 
[V:1] z4z2F2D2F2- | 
[V:2] A4G2A2B2A2- | 
[V:3] D8D4 | 
[V:4] D,4G,,2D,2G,,2D,2 | 
[V:5] G,2^F,2G,2=F,2G,2F,E, | 
[V:1] FDG4^F2G4 | 
[V:2] A2G2A4B4 | 
[V:3] D8D4 | 
[V:4] z4z2D,4B,,2 | 
[V:5] D,2G,,2D,4G,,2B,,2 | 
[V:1] z4z4z2G2 | 
[V:2] c4A4B4 | 
[V:3] E3DE2F4E2 | 
[V:4] C,2A,,3B,,C,4B,,2 | 
[V:5] A,,2C,3B,,A,,2G,,4 | 
[V:1] A2F3GA2D3E | 
[V:2] z2A2A2A2B4 | 
[V:3] F8F4 | 
[V:4] C,4D,3C,B,,3A,,/G,,/ | 
[V:5] F,,4z2F,3E,D,2 | 
[V:1] F4D4z4 | 
[V:2] A6d2c2BA | 
[V:3] F3EF2G4F2 | 
[V:4] F,,2F,3E,D,4C,2 | 
[V:5] C,2D,3C,B,,2A,,4 | 
[V:1] z2G3FEDE3D/C/ | 
[V:2] B2c4B2c4 | 
[V:3] G8G4 | 
[V:4] D,2C,2D,4C,3B,, | 
[V:5] G,,8z2D,2- | 
[V:1] D2E6D3C/B,/ | 
[V:2] B2c2z4z4 | 
[V:3] G3FG2A4G2 | 
[V:4] G,,2G,2E,2C,2D,4 | 
[V:5] D,2C,4B,,A,,B,,4 | 
[V:1] C2A,3B,C2A,B,CD | 
[V:2] z2c2A3Bc2A2- | 
[V:3] A8A4 | 
[V:4] E,2F,2F,,3G,,A,,2F,,2 | 
[V:5] A,,2F,,3G,,A,,2F,,2F,2 | 
[V:1] E2F2z2E2D3C/B,/ | 
[V:2] AGF2E4z2D2 | 
[V:3] A8F2G2 | 
[V:4] C,2D,2A,,4z4 | 
[V:5] E,2D,4C,2D,2B,,2 | 
[V:1] C2D2E2D4^C2 | 
[V:2] E2F2z2D2E3F | 
[V:3] A8A4 | 
[V:4] z12 | 
[V:5] A,,2D,2C,2D,2A,,4 | 
[V:1] D4z2C2D4 | 
[V:2] G8G4 | 
[V:3] B3cd2c4B2 | 
[V:4] G,,3A,,B,,2C,2B,,4 | 
[V:5] D,6E,2D,4 | 
[V:1] E2G3FF4E2 | 
[V:2] G4G2A2G4 | 
[V:3] c8c4 | 
[V:4] C,3D,E,2F,2C,4 | 
[V:5] C,4z4z2C,2- | 
[V:1] F4z4z4 | 
[V:2] F2A3GG4^F2 | 
[V:3] c8c4 | 
[V:4] F,,6G,,2A,,4 | 
[V:5] C,2F,4E,D,C,4 | 
[V:1] z2G4FED2G2- | 
[V:2] G3FD2G3ABc | 
[V:3] B8c4 | 
[V:4] G,,8G,,4 | 
[V:5] D,4B,,2D,3C,B,,A,, | 
[V:1] G2E2F2A4G2 | 
[V:2] d2A3GA2G2E2 | 
[V:3] B2c2d2c2B4 | 
[V:4] z12 | 
[V:5] G,,2A,,2D,2A,,2E,4 | 
[V:1] A4z2A2F3G | 
[V:2] z2A2F3GA2F2 | 
[V:3] A8A4 | 
[V:4] F,,3G,,A,,2F,,2F,2D,2- | 
[V:5] F,4z2F,2D,3E, | 
[V:1] A2F2D3EF4 | 
[V:2] D3EF2D3EFG | 
[V:3] A8A4 | 
[V:4] D,E,F,6D,3C, | 
[V:5] F,2D,3E,F,4D,2 | 
[V:1] E2A3GF2E2A2- | 
[V:2] A4z2A3GF2 | 
[V:3] c8c4 | 
[V:4] A,,4z4z4 | 
[V:5] E,4A,,4z4 | 
[V:1] AGF2E2D2E4 | 
[V:2] E2A3GFEA4 | 
[V:3] c3Bc2d4^c2 | 
[V:4] z12 | 
[V:5] A,,6D,2A,,4 | 
[V:1] D3EF2G2F2A2- | 
[V:2] z2A4B2A4 | 
[V:3] d8d4 | 
[V:4] z2F,2D,3E,F,2D,2- | 
[V:5] D,6G,,2D,4 | 
[V:1] AGG4F2G4 | 
[V:2] F2G2A4z2G2 | 
[V:3] d8c2B2 | 
[V:4] D,C,D,E,F,2D,2E,4 | 
[V:5] z2G,,2D,4z4 | 
[V:1] F2G2F2G3FG2 | 
[V:2] A2B2A2B3AB2 | 
[V:3] d8d4 | 
[V:4] D,4z2G,3F,G,2 | 
[V:5] z2G,,2D,2G,,2z2G,,2 | 
[V:1] A2G2F2G4F2 | 
[V:2] A2B2A2G2F4 | 
[V:3] d8d4 | 
[V:4] F,2G,2D,3E,F,2D,2 | 
[V:5] D,2G,,2z2G,,2D,4 | 
[V:1] G3FE2D2C3B,/A,/ | 
[V:2] G2ABc2B2A4 | 
[V:3] G8E2F2 | 
[V:4] z2E,3D,B,,2A,,4 | 
[V:5] E,2C,3B,,A,,G,,A,,4 | 
[V:1] B,4z4z4 | 
[V:2] d6c2d3c/B/ | 
[V:3] G8G4 | 
[V:4] D,4z2E,2D,2E,C, | 
[V:5] G,,3A,,B,,2C,2B,,2C,2 | 
[V:1] z4z2D2E2D2- | 
[V:2] c2A2z4z2A2 | 
[V:3] A8A4 | 
[V:4] E,6F,2E,2F,2 | 
[V:5] A,,3B,,C,2D,2C,2D,2 | 
[V:1] DEFGA2G4^F2 | 
[V:2] B4A2d6 | 
[V:3] d4c2B2A4 | 
[V:4] G,2D,2F,2G,2D,4 | 
[V:5] G,,4z4z4 | 
[V:1] G12- | 
[V:2] B6c2z2c2 | 
[V:3] G8G4 | 
[V:4] G,,4z2C,2B,,2C,2 | 
[V:5] D,3C,/D,/E,2C,2D,2E,2 | 
[V:1] G4z4z4 | 
[V:2] B2c2c2B2A2c2 | 
[V:3] G8E2F2 | 
[V:4] G,,2C,3B,,G,,2A,,4 | 
[V:5] D,2E,3D,B,,2C,4 | 
[V:1] z2G6D2G2 | 
[V:2] B12 | 
[V:3] G8G4 | 
[V:4] G,,12 | 
[V:5] D,2E,2D,2G,3F,E,D, | 
[V:1] E3FG2E2G4 | 
[V:2] c4G2c3BG2 | 
[V:3] G8G4 | 
[V:4] C,3D,E,2C,2E,3D,/E,/ | 
[V:5] E,2C,3D,E,2C,2E,2 | 
[V:1] F4z4z4 | 
[V:2] A6B2A4 | 
[V:3] d8d4 | 
[V:4] F,2D,4G,,2D,4 | 
[V:5] D,3E,F,2G,4^F,2 | 
[V:1] z2G2F2G2A2G2 | 
[V:2] G4z2G2F2G2 | 
[V:3] d8d4 | 
[V:4] z2G,,2D,2G,,2z2G,,2 | 
[V:5] G,4z2G,,2D,2G,,2 | 
[V:1] z2G2F2G2A2G2 | 
[V:2] A2G2z2G2F2G2 | 
[V:3] d8d4 | 
[V:4] D,2G,,2z2G,,2D,2G,,2 | 
[V:5] z2G,,2D,2G,,2z2G,,2 | 
[V:1] F2G4^F2G4 | 
[V:2] A2B2A4G4 | 
[V:3] d8d4 | 
[V:4] z2G,,2D,4G,,4 | 
[V:5] D,2G,,2z2D,2D,2D,2 | 
[V:1] E2A3GF2E2A,2 | 
[V:2] A4E2A3GF2 | 
[V:3] c8c4 | 
[V:4] z12 | 
[V:5] A,,12 | 
[V:1] z2A4GFE2A,2 | 
[V:2] E2A2z2A4GF | 
[V:3] c8c4 | 
[V:4] A,,8A,,4 | 
[V:5] z12 | 
[V:1] z2A2E2F2EDCB, | 
[V:2] E2A2z2A2E2F2 | 
[V:3] c8c4 | 
[V:4] z12 | 
[V:5] A,,8A,,4 | 
[V:1] A,2A4GFE4 | 
[V:2] E2A2z2A4A2 | 
[V:3] c8c4 | 
[V:4] A,,8A,,4 | 
[V:5] E,8E,4 | 
[V:1] D2F3EDCD2A,2 | 
[V:2] A8A4 | 
[V:3] d8d4 | 
[V:4] D,4C,4z2F,2- | 
[V:5] F,4z2F,3E,D,C, | 
[V:1] z2A2G2F4ED | 
[V:2] z2B2A2B2A3B | 
[V:3] d8d4 | 
[V:4] F,E,D,C,F,2G,,2z2F,2 | 
[V:5] D,2G,,2z2D,2D,4 | 
[V:1] E4D2E2D2E2 | 
[V:2] c4B2c2d2c2 | 
[V:3] G8G4 | 
[V:4] E,2C,2D,2C,2z4 | 
[V:5] C,3B,,G,,2C,2B,,2C,2 | 
[V:1] F2G3FF4E2 | 
[V:2] B2c4B2c2c2 | 
[V:3] G6F2G4 | 
[V:4] z12 | 
[V:5] D,2C,2D,4C,4 | 
[V:1] F12 | 
[V:2] A12 | 
[V:3] F8F4 | 
[V:4] C,8C,4 | 
[V:5] F,,12 | 
[V:1] F8C4 | 
[V:2] _B3AFGA4GF | 
[V:3] F8F4 | 
[V:4] D,6C,4B,,A,, | 
[V:5] _B,,6A,,G,,F,,4 | 
[V:1] D4z2D2F2G2 | 
[V:2] G2D2G2F2D2E2 | 
[V:3] _B8_B4 | 
[V:4] G,,3F,,G,,A,,_B,,4A,,G,, | 
[V:5] z12 | 
[V:1] A4G2F2D2E2 | 
[V:2] F2c3BA4G2 | 
[V:3] A2F2G2A2_B4 | 
[V:4] F,,4z4z4 | 
[V:5] C,3D,E,2F,2G,4 | 
[V:1] F2A3GF4ED | 
[V:2] A2D3EFGA4 | 
[V:3] A8A4 | 
[V:4] F,4D,4z2D,2 | 
[V:5] D,3E,F,2D,4C,B,, | 
[V:1] C2D2F2E2D4 | 
[V:2] z12 | 
[V:3] A8F2G2 | 
[V:4] E,2D,3C,A,,2B,,4 | 
[V:5] A,,2F,3E,C,2D,4 | 
[V:1] C2E4F2E2A2- | 
[V:2] z2c2A2c3Bc2 | 
[V:3] A8A4 | 
[V:4] A,,8A,,4 | 
[V:5] E,3D,C,2A,,2E,3D,/C,/ | 
[V:1] AGF2E2D4^C2 | 
[V:2] d2A3GF2E2A2- | 
[V:3] A8A4 | 
[V:4] D,4C,2D,2A,,4 | 
[V:5] F,2D,2E,2F,2z2E,2 | 
[V:1] D4z4z2D2- | 
[V:2] A2G2A4B2A2- | 
[V:3] D8D4 | 
[V:4] z2G,,2D,4G,,2D,2- | 
[V:5] F,2G,4F,2G,2F,2- | 
[V:1] DEF2D2G4F2 | 
[V:2] A2d3cB2A4 | 
[V:3] D8D4 | 
[V:4] D,4B,,2G,,2D,4 | 
[V:5] F,2E,D,G,4z4 | 
[V:1] G2E4A4G2 | 
[V:2] G2A2G2c2B2B2 | 
[V:3] E8E4 | 
[V:4] z2A,,2C,2A,,2E,4 | 
[V:5] z12 | 
[V:1] A2G3FE4DC | 
[V:2] A2B2c4c4 | 
[V:3] E8E2F2 | 
[V:4] A,,2E,3D,C,B,,C,2B,,A,, | 
[V:5] z2G,2G,2G,2C,4 | 
[V:1] B,4z2E2D2E2- | 
[V:2] z2d2c3B/A/B2c2- | 
[V:3] G8G4 | 
[V:4] G,,4C,4G,,2C,2- | 
[V:5] D,2C,D,E,2C,2D,2E,2 | 
[V:1] E4D2C2B,4 | 
[V:2] c2c2z4z4 | 
[V:3] G3AB2A4^G2 | 
[V:4] C,D,E,F,G,2E,2z2E,2- | 
[V:5] C,3B,,G,,2A,,2E,4 | 
[V:1] A,4z2F2E2F2- | 
[V:2] c4d4c2d2- | 
[V:3] A8A4 | 
[V:4] E,2E,2F,2D,2E,2D,2 | 
[V:5] A,,4D,3C,A,,2D,2- | 
[V:1] F4E2D2C2A2 | 
[V:2] dc/B/ABc2A2z2c2- | 
[V:3] A8A4 | 
[V:4] z2D,2E,2F,3E,D,C, | 
[V:5] D,4C,2D,2A,,4 | 
[V:1] G2A6G2F2 | 
[V:2] cBAGA2F2G2A2 | 
[V:3] c8c4 | 
[V:4] C,2F,,6C,2F,,2 | 
[V:5] z2F,6E,2F,2 | 
[V:1] E4z4z4 | 
[V:2] G3FG2A3GEF | 
[V:3] c8c4 | 
[V:4] z2C,3B,,A,,G,,A,,4 | 
[V:5] C,3D,E,2C,2E,3C, | 
[V:1] z2D2E2D2G3F | 
[V:2] G12 | 
[V:3] B8B4 | 
[V:4] G,,8G,,4 | 
[V:5] D,4z2D,2E,2D,2 | 
[V:1] D3E/F/D2A4^G2 | 
[V:2] z2E2G2A2z2B2 | 
[V:3] B2c2d2c2B4 | 
[V:4] z2C,2B,,2A,,2E,3D, | 
[V:5] G,3F,D,2E,2z2E,2- | 
[V:1] A4z2A3GF2- | 
[V:2] c2d2c2d2c2d2 | 
[V:3] A8A4 | 
[V:4] A,,2D,2A,,2F,2E,2D,2- | 
[V:5] E,2F,2E,2D,2A,,2D,2 | 
[V:1] F2E2F2G4^F2 | 
[V:2] z4z2c2d3c | 
[V:3] A6G2A4 | 
[V:4] D,2C,2D,2E,2D,4 | 
[V:5] D,2z2z4z4 | 
[V:1] G4z2G3FE2 | 
[V:2] B2c2B2c2B2c2 | 
[V:3] G8G4 | 
[V:4] G,,2C,2G,,2E,2D,2C,2- | 
[V:5] D,2E,2D,2C,2G,,2C,2 | 
[V:1] D2E2F4E4 | 
[V:2] z4c2B2c4 | 
[V:3] G6F2G4 | 
[V:4] C,2B,,2C,2D,2C,4 | 
[V:5] C,2z2z4z4 | 
[V:1] F2A3GFED3E | 
[V:2] A3Bc2A2_B4 | 
[V:3] F8F4 | 
[V:4] F,,4F,,4_B,,3A,, | 
[V:5] C,4C,4D,4 | 
[V:1] F2C3DE4D2 | 
[V:2] A4z2c2A2B2 | 
[V:3] F6E2F4 | 
[V:4] G,,F,,F,,2F,,2C,2D,4 | 
[V:5] C,4z4z2D,2 | 
[V:1] E3FG2A4^G2 | 
[V:2] c4B2A2B4 | 
[V:3] E8E4 | 
[V:4] A,,4z4z4 | 
[V:5] C,3D,E,2A,,2E,4 | 
[V:1] A4z2A6 | 
[V:2] A2c3Bd4^c2 | 
[V:3] E6D2E4 | 
[V:4] z2E,2C,2D,2A,,4 | 
[V:5] A,,4z4z4 | 
[V:1] F3ED2G2F2A2- | 
[V:2] d4z2d6 | 
[V:3] D8D4 | 
[V:4] z2F,2G,4z2F,2 | 
[V:5] z2D,2B,,2G,,2D,4 | 
[V:1] A2G4^F2G4 | 
[V:2] B2G2A4B2G2 | 
[V:3] D8D4 | 
[V:4] G,4F,2D,2z2D,2 | 
[V:5] G,,4D,4G,,4 | 
[V:1] z2G2A2F3E/D/E2 | 
[V:2] A2B2c2A2c4 | 
[V:3] E6F2G4 | 
[V:4] A,,2E,2C,2F,2z2C,2- | 
[V:5] z4A,,2D,2C,4 | 
[V:1] F2E3A,D4^C2 | 
[V:2] c4c2A2A4- | 
[V:3] A4G2F2E4 | 
[V:4] C,B,,C,D,E,2D,2C,2A,,2 | 
[V:5] F,,G,,A,,B,,C,2D,2A,,4 | 
[V:1] D12- | 
[V:2] A4z2c2B2G2 | 
[V:3] D12- | 
[V:4] F,6D,2G,4- | 
[V:5] z2D,3C,B,,A,,G,,4- | 
[V:1] D12 |]  
[V:2] B4A8 |]  
[V:3] D12 |]  
[V:4] G,4F,8 |]  
[V:5] G,,4D,8 |]  



